**kern
*staff1
*head[head1a]
*head[head1b]
*head[head1aa]
*solo1[solo1a]
*solo1[solo1b]
*solo1[solo1aa]
=1-
*clefG2
*k[]
*B-:
*M4/4
1r
=2
1r
=3
*>head1a
{4g/
4b-\
8dd\L
8ee-\
8dd\
8cc\J
=4||
8b-/L
8g/
8e-/
8c/J
8d-/L
8a/
8g/
8g-/J
=5
8f/L
8e-/
8d/
[8e-/J
4.e-/]
16d/LL
16d-/JJ
=6
8c/L
8B-/
8A/
8c/J
8e-/L
8g-/
8e-/
8c/J
=7
8f/L
8g/J
12a-/L
12b-/
12a-/J
8g/L
8f/
8d/
8B-/J
=8
8f/L
8e-/
8B-/
8G/J
8c#/L
8d/
8B-/
8G/J
=9
8c/L
8B-/
8c/
8B-/J}
2r
=10
2r
24
=11
8r
{8e/
12f\L
12b-\
12dd\J
4ff\
4ff\
=12||
4ee-\
8ee-\L
[8dd\J
8dd\L]
8dd\
8cc\J
8r
=13
8r
8c#/
12d/L
12f/
12a/J
12cc\L
12b\
12b\J
12a-/L
12e/
12d-/J
=14
12b-\L
12cc\
12b-\J
8a/L
8g/J
8f/L
8e-/
8d/
8c/J
=15
8B-/L
8A/
8A-/
8B-/J
8b/L
8a-/
8g/
8f/J
=16
8e-/L
8A/
8B-/
8c/J
4.d-/
[8a/
=17
4.a/]
16g/LL
16g-/JJ
8f/L
16e/L
16e-/JJ
16e-/LL
16d/J
[8e-/J
=18
2e-/]}
4r
8r
*>head1b
{8c#/
=19
12d/L
12e/
12g/J
[4b\
4b\]
8b/L
[8a/J
=20||
8a/L]
8g/
8g-/
8B-/J
4d-/}
4r
=21
8r
{8B/
12c/L
12e-/
12g-/J
8b-/L
8g-/
8e-/
8c/J
=22
8a/L
8g/
8f/
8e/J
8d/L
8c/J
12B/L
12d/
12f/J
=23
12a-/L
12b-/
12a-/J
8g/L
8f/J
16e/LL
16g/
16b-/
16dd/JJ
16ff\LL
16dd\
16dd#\
16ee\JJ
=24
16cc\LL
16cc#\
16dd\
16ccn\JJ
16b-/LL
16a/
16g/
16f/JJ
16e\LL
16g\
16b-\
32dd\L
32cc\JJJ
4a/}
=25
4r
8r
{16cc\LL
16b\JJ
8b-/L
8a/
8g/
8f/J
=26
8e-/L
8G/
8B-/
8d/J
8c/L
8B-/J
12c/L
12e-/
12g-/J
=27
*>head1aa
8f/L
8e-/J
12d/L
12f/
12a/J
8cc/L
8b-/
8a/
8g/J
=28||
8b-/L
8g/J}
4r
4r
8r
{16g/LL
16g-/JJ
=29
8f/L
8e-/
8d/
8c/J
8B/L
8a-/
8g/
8f/J
=30
8e-/L
8G/
8B-/
8d/J
8c/L
8B-/J
16A/LL
16c/
16e-/
16g-/JJ
=31
8f/L
8d/J
12e-/L
12g/
12b-/J
8cc\L
8bn\
8b-\
8a-\J
=32
8g/L
8f/
8e-/
8c/J
4f#/
8dd\L
8cc\J
=33
8b-/L
8a/
8cc/
8a/J
8b-/L
[8f/J
4f/]
=34
4r
8r
[8ee-\
8ee-\L]
8ee-\
8dd\
8b-\J}
=35
1r
=36
1r
=37
1r
=38
1r
=39
1r
=40
1r
=41
1r
=42
1r
=43
1r
=44
1r
=45
1r
=46
1r
=47
1r
=48
1r
=49
1r
=50
1r
=51
1r
=52
1r
=53
1r
=54
1r
=55
1r
=56
1r
=57
1r
=58
1r
=59
1r
=60
1r
=61
1r
=62
1r
=63
1r
=64
1r
=65
1r
=66
2r
4r
8r
*>solo1a
{8dd\
=67
8ee-\L
8ff\
8dd\
8cc\J
8b-/L
8a/
8cc/
8a/J
=68||
8b-/L
8f/
8d/
8B-/J
8d-/L
8a/
8g/
8g-/J
=69
8f/L
8e/
8e-/
8d/J
8a-/L
8en/
8d-/
8B/J
=70
8g/L
16e-/L
16d/J
8c/
8B-/J
8A/L
8f#/
8e-/
8en/J
=71
8f/L
8e-/J
12d/L
12f/
12a/J
8cc\L
8b\
8b-\
8a-\J
=72
4g/
8r
[8b-\
8b-\L]
8b-\J
4g-/
=73
8r
[8b-\L
8b-\]
16cc\L
16b-\JJ
4f/
8r
[8b-\
=74
8b-\L]
16cc\L
16b-\J
8e\
[8b-\J
12b-\L]
12cc\
12b-\J
4e-/}
=75
8r
{8c#/
12d/L
12f/
12a/J
8cc/L
8a/J
12b-\L
12cc\
12dd\J
=76||
8ff\
8r
8ff\L
8ee-\J
8r
8ee-\L
8cc\J
8r
=77
4r
8dd\L
8ee-\J
8dd\L
8cc\
8b\
8dd\J
=78
8cc/L
8g/
8b-/
8g/J
8a/L
8f#/
8e-/
8en/J
=79
8f/L
8c#/J
12d/L
12f/
12a/J
8cc\L
8b\
8b-\
8a-\J
=80
8g/L
8f/
8e-/
8c/J
4b-\
8r
16dd\LL
16cc\JJ
=81
8b-/L
8a/
8cc/
8a/J
8b-/L
[8f/J
4f/]}
=82
1r
=83
8r
*>solo1b
{8B/
12c/L
12e-/
12g-/J
8b-/L
8g-/
8e-/
8c/J
=84||
8a/L
8g/J
12f#/L
12a/
12cc/J
4.ee-\
8ff\
=85
4dd\}
4r
8r
{8c#/L
8d/
8e/J
=86
8f/L
8g/
8a-/
8g/J
8f/L
8e-/
8d/
8c/J
=87
8a/L
16a-/L
16g/J
8g-/
8d/J
8B-/L
8G/
8c/
8A/J
=88
16B-/LL
16c/
16d/
16f/J
8a/
8g/J
8e/L
8c/
8c#/
8d/J
=89
8B-/L
8G/J
20A/LL
20c/
20e-/
20g/
20b-/JJ
8dd\L
8cc\J}
4r
=90
1r
=91
8r
*>solo1aa
{8d/
12e-/L
12d/
12B-/J
4.e-/
[8d/
=92||
8d/]
24e-/LL
24d/
24B-/JJ
4c/
4r
8r
8c#/
=93
12d/L
12f/
12a/J
8cc\L
8b-\J
8bn/L
8a-/
8e/
8d-/J
=94
8b-/L
8c/
8d/
[8e-/J
4e-/]}
4r
=95
8r
{8d/
12e-/L
12d/
12B-/J
4.e-/
[8d/
=96
24d/LL]
24e-/
24d/JJ
8B-/
4c/
4r
8r
16dd\LL
16cc\JJ
=97
8b-/L
8g/
8e-/
8c/J
8d/L
8B-/
8G/
8A/J
=98
8c/L
8A/
8B-/
[8a/J
4a;/]}
4r
==
*-
